findly-builder/apps/searchassist/src/assets/icons/Union.svg

<svg width="13" height="13" viewBox="0 0 13 13" fill="none" xmlns="http://www.w3.org/2000/svg">
<path fill-rule="evenodd" clip-rule="evenodd" d="M12.3567 0.643292C11.9649 0.251458 11.5008 0 10.9832 0C10.4658 0 10.0015 0.251706 9.60972 0.643292L1.37379 8.83103L0 12.9523L4.11982 11.5791L12.3556 3.39138L12.3567 3.39033C12.7485 2.9985 13 2.53438 13 2.01682C13 1.49926 12.7485 1.03514 12.3567 0.643292ZM8.95023 2.72982L10.2621 4.04178L3.57318 10.6917L1.60444 11.3479L2.26021 9.38068L8.95023 2.72982Z" fill="#202124"/>
</svg>

<svg width="13" height="13" fill="none" xmlns="http://www.w3.org/2000/svg"><path fill-rule="evenodd" clip-rule="evenodd" d="M12.357.643C11.965.251 11.5 0 10.983 0c-.517 0-.982.252-1.373.643L1.374 8.831 0 12.952l4.12-1.373 8.236-8.188c.393-.393.644-.857.644-1.374 0-.518-.252-.982-.643-1.374ZM8.95 2.73l1.312 1.312-6.689 6.65-1.969.656.656-1.967L8.95 2.73Z" fill="#202124"/></svg>
